X: 3
T: The Morning Star
R: reel
M: 4/4
L: 1/8
K: Fmaj
A3B AFDE|F2Acde fd|cAGc AFDE |FAGEF3 G|A~G3 AFDE|F2Acde fd|cAGc AFDE |FAGEF3 G|Acde f3g|e~c3acgc |Acde f3g|{a}geced3c|Acde f3g|e~c3acgc|A~c3 ~c2de|f3f{a}fedc|


Tune 828	Setting 13982

